static/img/xr/Button_Primary_32.svg

<svg fill="none" height="32" viewBox="0 0 43 32" width="43" xmlns="http://www.w3.org/2000/svg"><rect fill="#0063a3" height="32" rx="2" width="43"/><path d="m8.92188 13.7891h1.69922c.737 0 1.293.1067 1.668.3203.375.2135.5625.582.5625 1.1054 0 .2188-.0391.4167-.1172.5938-.0755.1745-.1862.319-.3321.4336-.1458.112-.3255.1875-.539.2266v.039c.2213.0391.4179.1081.5898.207.1745.099.3112.2409.4102.4258.1015.1849.1523.4245.1523.7188 0 .3489-.0833.6458-.25.8906-.164.2448-.3997.431-.707.5586-.3047.1276-.6667.1914-1.0859.1914h-2.05082zm.9375 2.3554h.89842c.4245 0 .7188-.069.8828-.207.1641-.138.2461-.3398.2461-.6055 0-.2708-.0976-.4661-.2929-.5859-.1928-.1198-.5-.1797-.9219-.1797h-.81252zm0 .7578v1.8125h.98832c.4375 0 .7447-.0846.9218-.2539.1771-.1692.2657-.3984.2657-.6875 0-.177-.0404-.3307-.1211-.4609-.0782-.1302-.2071-.2305-.3868-.3008-.1796-.0729-.4218-.1094-.7265-.1094zm8.01172-1.7265v4.3242h-.7227l-.125-.582h-.0507c-.0912.1484-.2071.2721-.3477.3711-.1406.0963-.2969.1679-.4688.2148-.1718.0495-.3528.0742-.5429.0742-.3255 0-.6042-.0547-.836-.164-.2291-.112-.4049-.2839-.5273-.5157-.1224-.2317-.1836-.5312-.1836-.8984v-2.8242h.9219v2.6523c0 .336.0677.5873.2031.7539.138.1667.3516.25.6406.25.2787 0 .5-.0573.6641-.1718.1641-.1146.2799-.2839.3477-.5079.0703-.2239.1054-.4987.1054-.8242v-2.1523zm2.9258 3.6601c.1198 0 .2383-.0104.3554-.0312.1172-.0235.224-.0508.3204-.082v.6953c-.1016.0442-.2331.082-.3946.1132-.1614.0313-.3294.0469-.5039.0469-.2448 0-.4648-.0403-.6601-.1211-.1953-.0833-.3503-.2252-.4649-.4258-.1146-.2005-.1719-.4778-.1719-.832v-2.3242h-.5898v-.4102l.6328-.3242.3008-.9258h.5781v.961h1.2383v.6992h-1.2383v2.3125c0 .2187.0547.3815.1641.4883s.2539.1601.4336.1601zm3.164 0c.1198 0 .2383-.0104.3555-.0312.1172-.0235.224-.0508.3203-.082v.6953c-.1015.0442-.2331.082-.3945.1132-.1615.0313-.3294.0469-.5039.0469-.2448 0-.4649-.0403-.6602-.1211-.1953-.0833-.3502-.2252-.4648-.4258-.1146-.2005-.1719-.4778-.1719-.832v-2.3242h-.5898v-.4102l.6328-.3242.3008-.9258h.5781v.961h1.2383v.6992h-1.2383v2.3125c0 .2187.0547.3815.164.4883.1094.1068.2539.1601.4336.1601zm5.3829-1.5078c0 .3594-.0469.6784-.1407.9571-.0937.2786-.2304.5143-.4101.707-.1797.1901-.3959.3359-.6485.4375-.2526.0989-.5377.1484-.8554.1484-.2969 0-.569-.0495-.8164-.1484-.2474-.1016-.4623-.2474-.6446-.4375-.1797-.1927-.319-.4284-.4179-.707-.099-.2787-.1485-.5977-.1485-.9571 0-.4765.0821-.8802.2461-1.2109.1667-.3333.4037-.5873.711-.7617.3072-.1745.6731-.2617 1.0976-.2617.3984 0 .75.0872 1.0547.2617.3047.1744.543.4284.7148.7617.1719.3333.2579.737.2579 1.2109zm-3.1368 0c0 .3151.0378.5847.1133.8086.0781.224.1979.3959.3594.5156.1614.1172.3698.1758.625.1758s.4635-.0586.625-.1758c.1614-.1197.2799-.2916.3555-.5156.0755-.2239.1132-.4935.1132-.8086s-.0377-.582-.1132-.8008c-.0756-.2213-.1941-.3893-.3555-.5039-.1615-.1172-.3711-.1757-.6289-.1757-.3802 0-.6576.1276-.832.3828-.1745.2552-.2618.6211-.2618 1.0976zm6.4453-2.2343c.487 0 .8659.1263 1.1368.3789.2734.25.4101.6523.4101 1.207v2.8203h-.918v-2.6484c0-.336-.069-.5873-.207-.7539-.138-.1693-.3515-.2539-.6406-.2539-.4193 0-.7109.1289-.875.3867-.1615.2578-.2422.6315-.2422 1.1211v2.1484h-.918v-4.3242h.7149l.1289.5859h.0508c.0937-.151.2096-.2747.3476-.3711.1406-.0989.2969-.1732.4688-.2226.1745-.0495.3554-.0742.5429-.0742z" fill="#f1f1f6"/></svg>

<svg width="43" height="32" viewBox="0 0 43 32" fill="none" xmlns="http://www.w3.org/2000/svg">
<rect width="43" height="32" rx="2" fill="#0063A3"/>
<path d="M8.92188 13.7891H10.6211C11.3581 13.7891 11.9141 13.8958 12.2891 14.1094C12.6641 14.3229 12.8516 14.6914 12.8516 15.2148C12.8516 15.4336 12.8125 15.6315 12.7344 15.8086C12.6589 15.9831 12.5482 16.1276 12.4023 16.2422C12.2565 16.3542 12.0768 16.4297 11.8633 16.4688V16.5078C12.0846 16.5469 12.2812 16.6159 12.4531 16.7148C12.6276 16.8138 12.7643 16.9557 12.8633 17.1406C12.9648 17.3255 13.0156 17.5651 13.0156 17.8594C13.0156 18.2083 12.9323 18.5052 12.7656 18.75C12.6016 18.9948 12.3659 19.181 12.0586 19.3086C11.7539 19.4362 11.3919 19.5 10.9727 19.5H8.92188V13.7891ZM9.85938 16.1445H10.7578C11.1823 16.1445 11.4766 16.0755 11.6406 15.9375C11.8047 15.7995 11.8867 15.5977 11.8867 15.332C11.8867 15.0612 11.7891 14.8659 11.5938 14.7461C11.401 14.6263 11.0938 14.5664 10.6719 14.5664H9.85938V16.1445ZM9.85938 16.9023V18.7148H10.8477C11.2852 18.7148 11.5924 18.6302 11.7695 18.4609C11.9466 18.2917 12.0352 18.0625 12.0352 17.7734C12.0352 17.5964 11.9948 17.4427 11.9141 17.3125C11.8359 17.1823 11.707 17.082 11.5273 17.0117C11.3477 16.9388 11.1055 16.9023 10.8008 16.9023H9.85938ZM17.8711 15.1758V19.5H17.1484L17.0234 18.918H16.9727C16.8815 19.0664 16.7656 19.1901 16.625 19.2891C16.4844 19.3854 16.3281 19.457 16.1562 19.5039C15.9844 19.5534 15.8034 19.5781 15.6133 19.5781C15.2878 19.5781 15.0091 19.5234 14.7773 19.4141C14.5482 19.3021 14.3724 19.1302 14.25 18.8984C14.1276 18.6667 14.0664 18.3672 14.0664 18V15.1758H14.9883V17.8281C14.9883 18.1641 15.056 18.4154 15.1914 18.582C15.3294 18.7487 15.543 18.832 15.832 18.832C16.1107 18.832 16.332 18.7747 16.4961 18.6602C16.6602 18.5456 16.776 18.3763 16.8438 18.1523C16.9141 17.9284 16.9492 17.6536 16.9492 17.3281V15.1758H17.8711ZM20.7969 18.8359C20.9167 18.8359 21.0352 18.8255 21.1523 18.8047C21.2695 18.7812 21.3763 18.7539 21.4727 18.7227V19.418C21.3711 19.4622 21.2396 19.5 21.0781 19.5312C20.9167 19.5625 20.7487 19.5781 20.5742 19.5781C20.3294 19.5781 20.1094 19.5378 19.9141 19.457C19.7188 19.3737 19.5638 19.2318 19.4492 19.0312C19.3346 18.8307 19.2773 18.5534 19.2773 18.1992V15.875H18.6875V15.4648L19.3203 15.1406L19.6211 14.2148H20.1992V15.1758H21.4375V15.875H20.1992V18.1875C20.1992 18.4062 20.2539 18.569 20.3633 18.6758C20.4727 18.7826 20.6172 18.8359 20.7969 18.8359ZM23.9609 18.8359C24.0807 18.8359 24.1992 18.8255 24.3164 18.8047C24.4336 18.7812 24.5404 18.7539 24.6367 18.7227V19.418C24.5352 19.4622 24.4036 19.5 24.2422 19.5312C24.0807 19.5625 23.9128 19.5781 23.7383 19.5781C23.4935 19.5781 23.2734 19.5378 23.0781 19.457C22.8828 19.3737 22.7279 19.2318 22.6133 19.0312C22.4987 18.8307 22.4414 18.5534 22.4414 18.1992V15.875H21.8516V15.4648L22.4844 15.1406L22.7852 14.2148H23.3633V15.1758H24.6016V15.875H23.3633V18.1875C23.3633 18.4062 23.418 18.569 23.5273 18.6758C23.6367 18.7826 23.7812 18.8359 23.9609 18.8359ZM29.3438 17.3281C29.3438 17.6875 29.2969 18.0065 29.2031 18.2852C29.1094 18.5638 28.9727 18.7995 28.793 18.9922C28.6133 19.1823 28.3971 19.3281 28.1445 19.4297C27.8919 19.5286 27.6068 19.5781 27.2891 19.5781C26.9922 19.5781 26.7201 19.5286 26.4727 19.4297C26.2253 19.3281 26.0104 19.1823 25.8281 18.9922C25.6484 18.7995 25.5091 18.5638 25.4102 18.2852C25.3112 18.0065 25.2617 17.6875 25.2617 17.3281C25.2617 16.8516 25.3438 16.4479 25.5078 16.1172C25.6745 15.7839 25.9115 15.5299 26.2188 15.3555C26.526 15.181 26.8919 15.0938 27.3164 15.0938C27.7148 15.0938 28.0664 15.181 28.3711 15.3555C28.6758 15.5299 28.9141 15.7839 29.0859 16.1172C29.2578 16.4505 29.3438 16.8542 29.3438 17.3281ZM26.207 17.3281C26.207 17.6432 26.2448 17.9128 26.3203 18.1367C26.3984 18.3607 26.5182 18.5326 26.6797 18.6523C26.8411 18.7695 27.0495 18.8281 27.3047 18.8281C27.5599 18.8281 27.7682 18.7695 27.9297 18.6523C28.0911 18.5326 28.2096 18.3607 28.2852 18.1367C28.3607 17.9128 28.3984 17.6432 28.3984 17.3281C28.3984 17.013 28.3607 16.7461 28.2852 16.5273C28.2096 16.306 28.0911 16.138 27.9297 16.0234C27.7682 15.9062 27.5586 15.8477 27.3008 15.8477C26.9206 15.8477 26.6432 15.9753 26.4688 16.2305C26.2943 16.4857 26.207 16.8516 26.207 17.3281ZM32.6523 15.0938C33.1393 15.0938 33.5182 15.2201 33.7891 15.4727C34.0625 15.7227 34.1992 16.125 34.1992 16.6797V19.5H33.2812V16.8516C33.2812 16.5156 33.2122 16.2643 33.0742 16.0977C32.9362 15.9284 32.7227 15.8438 32.4336 15.8438C32.0143 15.8438 31.7227 15.9727 31.5586 16.2305C31.3971 16.4883 31.3164 16.862 31.3164 17.3516V19.5H30.3984V15.1758H31.1133L31.2422 15.7617H31.293C31.3867 15.6107 31.5026 15.487 31.6406 15.3906C31.7812 15.2917 31.9375 15.2174 32.1094 15.168C32.2839 15.1185 32.4648 15.0938 32.6523 15.0938Z" fill="#F1F1F6"/>
</svg>
